X:1
T:O notte, o ciel
T:Madalena Casulana
T:Source : Secondo libro de madrigali a quattro voci---Venetia---G.Scotto---1570. Editor : André Vierendeels (27/08/17).
T:O notte, o ciel
T:©
T:©
T:©
T:©
C:Madalena Casulana
Z:©
%%score [ 1 2 3 4 ]
L:1/8
Q:1/4=120
M:2/2
K:C
V:1 treble nm="Soprano" snm="S"
V:2 treble nm="Alto" snm="A"
V:3 treble-8 nm="Tenor" snm="T"
V:4 bass nm="Bass" snm="B"
V:1
 z8 | z8 | d8 | A6 G2 | F8 | E4 z2 A2- | A2 d4 d2 | e2 c2 f4- | f2 e2 d4 | ^c4 d2 d2 | %10
w: ||O|not- *||te, O|_ ciel' o|mar' o piag-|* gie'o mon-|ti, che si|
"^-natural" c4 B2 c2 | A4 B4 | z8 | e8- | e4 E4 | A8 | ^G2 A2 A3 A | B3 B c3 A | c2 A2 A4 | %19
w: spes- so m'u-|di- te,||chia-|* mar|mor-|te, o val- li'o|selv' o bos- chi'o|fiu- mi'o fon-|
 ^F4 z2 F2 | G4 d4 | c2 B2 e4 | d2 c4 B2 | A4 B4 | z2 c2 A2 _B2 | A6 E2 | F4 E2 AG | AB c4 A2 | %28
w: ti, che|fost' al-|la mia vi-|ta fi- de|scor- te|o fe- re|snel- le|che con lie- *|* * * te|
 d4 e2 c2 | c4 A4 | d4 B4 | z2 c4 d2 | B2 c2 B4 | A8 | z8 | z2 A4 G2- | G2 ^F2 G2 A2 | B2 c2 d4- | %38
w: fron- ti, e-|ran- do'an-|da- te,|con gio-|io- sa sor-|te,||o te-|* sti- mon de|miei si du-|
 d2 c4 B2- | BA A3 ^G/^F/ G2 | A2 E2 E2 E2 | ^F4 G4 | G8 | G4 c4 | _B4 A4- | A2 GF G4 | A8- | A8 |] %48
w: * ri'ac- cen-||ti, dat' au- di-|en- tia'in|sie-|me'a miei|la- men-||ti.|_|
V:2
 A8- | A8- | A8 | F6 E2 | D8 | ^C4 E4 | ^F4 G2 G2- | G2 A2 A4- | A2 A2 A4- | A4 A4 | A2 A2 G4 | %11
w: O|_||not- *||te, O|ciel' o mar'|_ o piag-|* gie'o mon-|* ti,|che si spes-|
 ^F2 F2 G4- | G4 E4 | z4 A4- | A4 A4 | E8 | E2 E2 ^F3 F |"^-natural" G3 G A3 F | G2 F2 E4 | %19
w: so m'u- di-|* te,|cha-|* mar|mor-|te, o val- li'o|selv' o bos- chi'o|fiu- mi'o fon-|
 A4 z2 A2 | D4 G2 F2- | F2 D2 C4 | B,2 G4 G2 | ^F4 G2 D2 |"^-natural" G4 F2 D2- | D2 ^C2 C4 | %26
w: ti, che|fost' al- la|_ mia vi-|ta fi- de|scor- te, o|fe- re snel-|* le, che|
 D4 G2 F2 | F4 E4 | z2 G4 E2- | E2 A2 ^F4 | G4 z4 | z2 G2 A2 ^F2 | ^G2 A3 G/^F/ G2 | A4 z2 F2- | %34
w: con lie- te|fron- ti,|e- rand'|_ an- da-|te,|con gio- io-|sa sor- * * *|te, o|
 F2 E4 D2 | D4 D4 | E2 A2 G4 | ^F2 G2 A2 G2 |"^-natural" F4 E4 | E8 | E2 ^C2 C2 C2 | D4 E4 | D8 | %43
w: _ te- sti-|mon de|miei si du-|ri, de miei si|du- ri'ac-|cen-|ti, dat' au- di-|en- tia'in|sie-|
 E8 | D8 | D4 D4- | D2 CB, ^C4 | D8 |] %48
w: me'a|miei|la men-||ti.|
V:3
 z8 | d8- | d8 | d8 | A8- | A4 ^c4 | d2 A2 B4 | c4 c4- | c2 c2 f4 | e4 f2 f2 | f4 d2 e2 | d8 | e8 | %13
w: |O|_|not-|te,|_ O|ciel' o mar'|o piag-|* gie'o mon-|ti, Che si|spes- so m'u-|di-|te,|
 c8- | c4 c4 | c8 | B2 ^c2 d3 d | d3 d f3 c | e2 d2 ^c4 | d4 z2 d2 | B6 A2 | A2 G2 g4 | g2 e4 d2 | %23
w: chia-|* mar|mor-|te, o val- li'o|selv' o bos- chi'o|fiu- mi'o fon-|ti, che|fost' al-|la mia vi-|ta fi- de|
 d4 d4 | z2 e2 c2 g2 | e3 e e2 A2 | AGAB c4- | c4 c2 c2- | cB/A/ B2 c2 G2 | A2 e2 d4 | B4 z2 d2- | %31
w: scor- te,|o fe- re|snel- le, che con|lie- * * * *|* te fron-|* * * * ti, e|ran- do'an- da-|te, con|
"^#" d2 e2 f2 d2 | e8 | A4 d4 | c4 B4 | A4 B4 | c2 d2 e4 | d2 c4 B2 | z2 A2 c2 G2 | c2 c2 B4 | %40
w: _ gio- io- sa|sor-|te, o|te- sti-|mon de|miei si du-|ri'ac- cen- ti,|de miei si|du- ri'ac- cen-|
 A2 A2 A2 A2 | A4 c2 c2- | c2 BA B4 | c4 G4- | G4 F4 | F4 E2 D2 | E8 | ^F8 |] %48
w: ti, dat' au- di-|en- tia'in sie-||me'a miei|_ la-|men- * *||ti.|
V:4
 z8 | z8 | D,8- | D,8 | D,8 | A,,8 | z2 D,2 G,4 |"^-natural" C,2 F,4 F,2 | F,2 C,2 D,4 | %9
w: ||O|_|not-|te,|O ciel'|o mar' o|piag- gie'o mon-|
 A,4 D,2 D,2 | F,4 G,2 C,2 | D,4 G,4 | C8 | A,8 | A,,8- | A,,8 | E,2 A,2 D,3 D, | %17
w: ti, che si|spes- so m'u-|di- te,|chia-|mar|mor-||te, o val- li'o|
"^-natural" G,3 G, F,3 F, | C,2 D,2 A,4 | D,4 z2 D,2 | G,6 D,2 | F,2 G,2 C,4 | G,2 C,4 G,,2 | %23
w: selv' o bos- ch'i'o|fu- mi'o fon-|ti, che|fost' al-|la mia vi-|ta fi- de|
 D,4 G,,4 | z2 C,2 F,2 G,2 | A,4 A,4 | D,4 E,2 F,E, | F,G, A,4 A,2 | G,4 C,2 C,2 | A,,2 A,,2 D,4 | %30
w: sor- te,|o fe- re|snel- le|che con lie- *|* * * te|frn- ti, e|ran- d'an- da-|
 G,,8 | z8 | z8 | z8 | A,4 G,4 | ^F,4 G,4 | z8 |"^-natural" z2 E,2 F,2 G,2 | A,6 E,2 | E,8 | %40
w: te,||||o te-|sti- mon||de miei si|du- ri'ac-|cen-|
 A,,2 A,,2 A,,2 A,,2 | D,4 C,4 | G,8 | C,8 | D,8 | _B,,8 | A,,8 | D,8 |] %48
w: ti, dat' au- di-|en- tia'in|sie-|me'a|miei|la-|men-|ti.|

